source/img/vacancies/vacancies-location-icon.svg

<svg width="16" height="21" viewBox="0 0 16 21" fill="none" xmlns="http://www.w3.org/2000/svg">
<path fill-rule="evenodd" clip-rule="evenodd" d="M8 20.3828C8 20.3828 16 13.7175 16 8.36406C16 4.01062 12.3636 0.382812 8 0.382812C3.53247 0.382812 0 3.90697 0 8.36406C0 13.8211 8 20.3828 8 20.3828ZM8 1.38281C4.08254 1.38281 1 4.46147 1 8.36406C1 9.49579 1.41949 10.7595 2.129 12.0674C2.83331 13.3657 3.78507 14.6377 4.75777 15.7673C5.72776 16.8937 6.70076 17.858 7.43254 18.5414C7.64257 18.7376 7.83219 18.9101 7.99551 19.0561C8.15997 18.9072 8.35124 18.7311 8.56328 18.5308C9.29572 17.8389 10.2696 16.8643 11.2404 15.7305C12.2141 14.5936 13.1668 13.3173 13.8717 12.0223C14.5826 10.7165 15 9.46701 15 8.36406C15 4.56512 11.8136 1.38281 8 1.38281Z" fill="#E0E0E0"/>
<path fill-rule="evenodd" clip-rule="evenodd" d="M8 10.3828C9.10457 10.3828 10 9.48738 10 8.38281C10 7.27824 9.10457 6.38281 8 6.38281C6.89543 6.38281 6 7.27824 6 8.38281C6 9.48738 6.89543 10.3828 8 10.3828ZM8 11.3828C9.65685 11.3828 11 10.0397 11 8.38281C11 6.72596 9.65685 5.38281 8 5.38281C6.34315 5.38281 5 6.72596 5 8.38281C5 10.0397 6.34315 11.3828 8 11.3828Z" fill="#E0E0E0"/>
</svg>

<svg width="16" height="21" fill="none" xmlns="http://www.w3.org/2000/svg"><path fill-rule="evenodd" clip-rule="evenodd" d="M8 20.383s8-6.665 8-12.019C16 4.011 12.364.383 8 .383c-4.468 0-8 3.524-8 7.981 0 5.457 8 12.019 8 12.019zm0-19c-3.917 0-7 3.078-7 6.981 0 1.132.42 2.395 1.129 3.703.704 1.299 1.656 2.57 2.629 3.7a36.098 36.098 0 003.238 3.29 37.29 37.29 0 003.245-3.326c.973-1.137 1.926-2.414 2.63-3.709C14.584 10.716 15 9.467 15 8.364c0-3.799-3.186-6.981-7-6.981z" fill="#E0E0E0"/><path fill-rule="evenodd" clip-rule="evenodd" d="M8 10.383a2 2 0 100-4 2 2 0 000 4zm0 1a3 3 0 100-6 3 3 0 000 6z" fill="#E0E0E0"/></svg>
